src/assets/selectIcons/materiale_4.svg

<svg xmlns="http://www.w3.org/2000/svg" viewBox="0 0 512 512"><path d="M0 0h512v512H0z"/><path fill="#fff" d="M263.396 491.136l-21.303-131.13-13.116 127.847-44.258-24.593 49.024-168.947 41.122 67.33 19.665 91.792-31.134 37.7zm-153.69-3.88l-7.82-27.853-27.776-9.022 27.838-7.826 9.02-27.784 7.83 27.845 27.783 9.03-27.844 7.82-9.03 27.79zm60.94-55.476l-28.97-2.242-64.16-105.39-4.148-82.91 78.463 30.34 51.1 67.966-16.398 62.952-63.105-83.046 47.22 112.33zm145.663-28.756l-17.02-2.127-8.508-43.624-14.28-26.774 91.794-91.793 31.15 9.825-13.115 73.764-70.02 80.728zm18.348-41.894l27.27-32.52 9.98-40.923-25.183 32.52-12.067 40.923zM209.74 322.725l-38.527-51.62 22.13-109.025 77.046-95.052 63.105 85.227-6.55 105.735-59.012 60.64-37.7-57.373-20.493 61.468zm47.32-47.25l27.18-94.6 24.738-22.858-28.03 3.85-11.132-43.28-6.558 43.28-45.345 5.516 45.108 16.17-5.96 91.92zm-97.248-19.727l-27.876-44.267 9.84-93.413 31.143 62.286-13.108 75.395zm232.258-22.46l-9.87-35.175-35.077-11.393 35.153-9.887 11.393-35.076 9.886 35.16 35.076 11.402-35.153 9.87-11.41 35.1zm-213.9-97.943l-12.344-43.99-43.876-14.25 43.976-12.365 14.247-43.876L192.54 64.84l43.867 14.263-43.968 12.35-14.27 43.892z"/></svg>

<?xml version="1.0" encoding="UTF-8" standalone="no"?>
<!DOCTYPE svg PUBLIC "-//W3C//DTD SVG 1.1//EN" "http://www.w3.org/Graphics/SVG/1.1/DTD/svg11.dtd">
<svg width="100%" height="100%" viewBox="0 0 512 512" version="1.1" xmlns="http://www.w3.org/2000/svg" xmlns:xlink="http://www.w3.org/1999/xlink" xml:space="preserve" xmlns:serif="http://www.serif.com/" style="fill-rule:evenodd;clip-rule:evenodd;stroke-linejoin:round;stroke-miterlimit:2;">
    <rect x="0" y="0" width="512" height="512" style="fill-rule:nonzero;"/>
    <path d="M392.069,233.285L392.07,233.288L392.068,233.289L392.069,233.285ZM263.396,491.136L242.093,360.006L228.977,487.853L184.719,463.26L233.743,294.313L274.865,361.643L294.53,453.435L263.396,491.135L263.396,491.136ZM170.646,431.78L141.676,429.538L77.516,324.148L73.368,241.238L151.831,271.578L202.931,339.544L186.533,402.496L123.428,319.45L170.648,431.78L170.646,431.78ZM316.309,403.024L299.289,400.897L290.781,357.273L276.501,330.499L368.295,238.706L399.445,248.531L386.33,322.295L316.31,403.023L316.309,403.024ZM334.657,361.13L361.927,328.61L371.907,287.687L346.724,320.207L334.657,361.13ZM209.74,322.725L171.213,271.105L193.343,162.08L270.389,67.028L333.494,152.255L326.944,257.99L267.932,318.63L230.232,261.257L209.739,322.725L209.74,322.725ZM257.06,275.475L284.24,180.875L308.978,158.017L280.948,161.867L269.816,118.587L263.258,161.867L217.913,167.383L263.021,183.553L257.061,275.473L257.06,275.475ZM159.812,255.748L131.936,211.481L141.776,118.068L172.919,180.354L159.811,255.749L159.812,255.748Z" style="fill:rgb(98,80,226);fill-rule:nonzero;"/>
    <path d="M392.069,233.285L382.2,198.113L347.123,186.72L382.276,176.833L393.669,141.757L403.555,176.917L438.631,188.319L403.478,198.189L392.069,233.285ZM109.707,487.256L101.886,459.403L74.11,450.381L101.948,442.555L110.968,414.771L118.798,442.616L146.581,451.646L118.737,459.466L109.707,487.256ZM178.17,135.345L165.826,91.355L121.95,77.105L165.926,64.74L180.173,20.864L192.54,64.84L236.407,79.103L192.439,91.453L178.17,135.345Z" style="fill:white;"/>
</svg>
